X: 2012
T: Yâdımda O Sevdâlı...
C: Şükrü Tunar
O: Turkey
F: http://compmusic.upf.edu/node/140
N: muhayyer--sarki--aksak--yadimda_o--sukru_tunar
N: makam= muhayyer
N: form= sarki
N: usul= aksak = 9/8
M: 9/8
L: 1/16
K: C _2/4B ^3/4f  
Q: 1/4=120
%%MIDI tuningsystem comma53
g3a a4 ac'ba a2g2 =f2 | e3dc2 d2cB BAA6  | \
w:  Yâ *  dım da  *  o  *  sev  |  da *  lı  ye şil   | 
d4 f2g2 a2b2 c'2bb ba | 
w:  dî de le rin   | 
a12{b}ag fed2  | d4 d'c'c'b ba2g abc'2 ba | \
w:  var    |  dî de *  le *  rin   | 
a6 gfed cBA6  | 
w:  var   SAZ  | 
g3a a4 ac'ba a2g2 =f2 | e3dc2 d2cB BAA6  | \
w:  Yâ *  dım da  *  o  *  sev  |  da *  lı  ye şil   | 
d4 f2g2 a2b2 c'2bb ba | 
w:  dî de le rin   | 
a12{b}ag fed2  | d4 d'c'c'b ba2g abc'2 ba | \
w:  var    |  dî de *  le *  rin   | 
a6 abag fga6  | 
w:  var   SAZ  | 
a3/2g/a_1/4b g3^f f_2/4eed d2e2 f2 | \
w:  Öl *  *  *  sem  *  de  *  u *  nut  | 
g2 a2g2 ^f2_2/4e2 edd6  | 
w:  mam  *  *  *  se *  *  ni   | 
c3d d4 dcde c2B2 A2 | A2 B2c2 d2c2 B2dc B2BA  | 
w:  kal *  bim  |  de  *  ye *  rin   | 
A8 A2B2 {A}dcBA G2 | A3=ffe2ddc cBdc B2BA  | 
w:  var    |  kal *  bim *  *  de  *  ye *  rin   | 
A6a_1/4b agfg a6 | a3/2g/ a_1/4bg3^ff_2/4e edd2 e2f2  | 
w:  var   SAZ  |  Öl *  *  *  sem  *  de  *  u *  nut  | 
g2a2 g2^f2 _2/4e2ed d6 | c3dd4dc dec2 B2A2  | \
w:  mam  *  *  *  se *  *  ni   |  kal *  bim  | 
A2B2 c2d2 c2B2 dcB2 BA | 
w:  de  *  ye *  rin   | 
A8A2 B2{A}dc BAG2  | A3=f fe2d dccB dcB2 BA | 
w:  var    |  kal *  bim *  *  de  *  ye *  rin   | 
A6 e=fed cde6  | d3e e4 e2{g}=fe e2d2 c2 | \
w:  var   SAZ  |  Sî *  nem de  *  a *  çıl  | 
=f3eed dccB BAA6  | 
w:  mış  *  *  *  *  *  e *  be *  dî   | 
d4 a2{B}ag g2fe efg2 ^2/4fe | e8e2 a2ag fed2  | \
w:  yâ re *  le *  rin   |  var    | 
e4 c'_1/4bba ag2f ag^2/4f2 fe | 
w:  yâ re *  le *  rin   | 
e6 e=fed cde6  | d3e e4 e2{g}=fe e2d2 c2 | \
w:  var   SAZ  |  Sî *  nem de  *  a *  çıl  | 
=f3eed dccB BAA6  | 
w:  mış  *  *  *  *  *  e *  be *  dî   | 
d4 f2g2 a2_1/4b2 c'2c'b ba | a8a4a2 gfed  | \
w:  yâ re le rin   |  var    | 
d4 d'c'c'_1/4b bag2 abc'2 ba | 
w:  yâ re *  le *  rin   | 
a6 abag fga6  | a3/2g/a_1/4b g3^f f_2/4eed d2e2 f2 | 
w:  var   SAZ  |  Öl *  *  *  sem  *  de  *  u *  nut  | 
g2 a2g2 ^f2_2/4e2 edd6  | c3d d4 dcde c2B2 A2 | \
w:  mam  *  *  *  se *  *  ni   |  kal *  bim  | 
A2 B2c2 d2c2 B2dc B2BA  | 
w:  de  *  ye *  rin   | 
A8 A2B2 {A}dcBA G2 | A3=ffe2ddc cBdc B2BA  | 
w:  var    |  kal *  bim *  *  de  *  ye *  rin   | 
A6a_1/4b agfg a6 | a3/2g/ a_1/4bg3^ff_2/4e edd2 e2f2  | 
w:  var   SAZ  |  Öl *  *  *  sem  *  de  *  u *  nut  | 
g2a2 g2^f2 _2/4e2ed d6 | c3dd4dc dec2 B2A2  | \
w:  mam  *  *  *  se *  *  ni   |  kal *  bim  | 
A2B2 c2d2 c2B2 dcB2 BA | 
w:  de  *  ye *  rin   | 
A8A2 B2{A}dc BAG2  | A3=f fe2d dccB dcB2 BA | 
w:  var    |  kal *  bim *  *  de  *  ye *  rin   | 
A6 |
w:  var    | 


